X:118
T:Darlin, Have You Come To Say Goodbye
C:Matt Wallace - For A Season
N:solo Darrell Webb - Transcribed by Philippe Colleu
R:bluegrass
L:1/8
Q:1/4=230
M:4/4
K:C
"(126 bpm)"z2 FE ^DF Ac | "Bb"A_B Bc BF Bc | ^cd fc =c_B cG | "Eb"_B^d cB ^FG ^DC | 
^D=D FG _Bc BG | "Bb"FG _Bc ^cd fe | ^ga fd ^GA dc | "F"^GA cG =GF GD | F4 zE FG | 
"Bb"A_B Bc BF Bc | ^cd f2 dg _b^d' | "Eb"c'^f g^d cd ^c_B | ^c_B ^G^F =G^d zD | 
"F"GA f2 ^d2 f2 | ^ga f^d {^c}=d_B cd | "Bb"A_B z^c dB ^dc | d_b2f ^gf ze | ^d^c d_B c=d BG | 
_B2 ^G=G FG ^CD | _B,8 | 


